;FLAVOR:Marlin
;TIME:18722
;Filament used: 13.6121m
;Layer height: 0.2
;MINX:47.674
;MINY:73.672
;MINZ:0.3
;MAXX:160.05
;MAXY:136.824
;MAXZ:53.175
;Generated with Cura_SteamEngine 4.12.1
M82 ;absolute extrusion mode
G21                                        ; metric values 
G90                                        ; absolute positioning 
M82                                        ; set extruder to absolute mode 
M107                                       ; start with the fan off 
M140 S60           ; Start heating the bed 
G4 S60                                     ; wait 1 minute 
M104 S210         ; start heating the hot end 
M190 S60           ; wait for bed 
M109 S210         ; wait for hotend 
M300 S1000 P500                            ; BEEP heating done 
G28 X0 Y10 Z0                              ; move X/Y to min endstops 
M420 S1                                    ; Enable leveling 
M420 Z2.0                                  ; Set leveling fading height to 2 mm 
G0 Z0.15                                   ; lift nozzle a bit 
G92 E0                                     ; zero the extruded length 
G1 X50 E25 F500                            ; Extrude 25mm of filament in a 5cm line. 
G92 E0                                     ; zero the extruded length again 
G1 E-2 F500                                ; Retract a little 
G1 X120 F4000                              ; Quickly wipe away from the filament line`
G92 E0
G92 E0
G1 F1500 E-6
;LAYER_COUNT:265
;LAYER:0
M106 S76.5
M205 X10 Y10
G1 F600 Z0.375
G0 F6000 X50.961 Y75.033 Z0.375
M205 X8 Y8
;TYPE:SKIRT
G1 F600 Z0.3
G1 F1500 E0
G1 F1200 X51.632 Y74.654 E0.03845
G1 X52.189 Y74.385 E0.06931
G1 X52.466 Y74.26 E0.08447
G1 X53.133 Y74.003 E0.12013
G1 X53.843 Y73.818 E0.15673
G1 X53.938 Y73.799 E0.16157
G1 X54.646 Y73.698 E0.19725
G1 X55.161 Y73.675 E0.22297
G1 X55.879 Y73.672 E0.25879
G1 X56.84 Y73.684 E0.30674
G1 X145.718 Y73.685 E4.74088
G1 X146.416 Y73.695 E4.77571
G1 X147.129 Y73.745 E4.81136
G1 X147.833 Y73.874 E4.84707
G1 X148.517 Y74.082 E4.88274
G1 X149.174 Y74.364 E4.91841
G1 X149.796 Y74.718 E4.95411
G1 X150.374 Y75.139 E4.98979
G1 X150.902 Y75.622 E5.02549
G1 X151.372 Y76.16 E5.06113
G1 X151.78 Y76.748 E5.09684
G1 X152.119 Y77.378 E5.13253
G1 X152.386 Y78.041 E5.16819
G1 X152.577 Y78.731 E5.20391
G1 X152.69 Y79.437 E5.23958
G1 X152.73 Y80.234 E5.27939
G1 X152.733 Y80.414 E5.28837
G1 X152.732 Y129.778 E7.75115
G1 X152.724 Y130.479 E7.78613
G1 X152.675 Y131.193 E7.82183
G1 X152.548 Y131.896 E7.85747
G1 X152.343 Y132.582 E7.89319
G1 X152.062 Y133.24 E7.92889
G1 X151.71 Y133.862 E7.96455
G1 X151.291 Y134.442 E8.00024
G1 X150.81 Y134.971 E8.03591
G1 X150.272 Y135.443 E8.07162
G1 X149.686 Y135.852 E8.10727
G1 X149.057 Y136.193 E8.14297
G1 X148.394 Y136.462 E8.17866
G1 X147.705 Y136.655 E8.21436
G1 X147 Y136.77 E8.25
G1 X146.227 Y136.812 E8.28862
G1 X146.031 Y136.815 E8.2984
G1 X56.971 Y136.816 E12.74162
G1 X56.545 Y136.822 E12.76288
G1 X55.261 Y136.824 E12.82694
G1 X54.547 Y136.785 E12.86261
G1 X53.943 Y136.692 E12.8931
G1 X53.247 Y136.528 E12.92877
G1 X52.508 Y136.26 E12.96799
G1 X51.647 Y135.858 E13.0154
G1 X51.022 Y135.51 E13.05109
G1 X50.44 Y135.094 E13.08678
G1 X49.908 Y134.616 E13.12246
G1 X49.433 Y134.082 E13.15812
G1 X49.042 Y133.534 E13.1917
G1 X48.742 Y133.046 E13.22028
G1 X48.511 Y132.639 E13.24363
G1 X48.193 Y131.998 E13.27933
G1 X47.949 Y131.326 E13.315
G1 X47.781 Y130.631 E13.35067
G1 X47.692 Y129.921 E13.38637
G1 X47.674 Y129.29 E13.41786
G1 X47.684 Y128.12 E13.47623
G1 X47.684 Y82.478 E15.75332
G1 X47.675 Y81.745 E15.7899
G1 X47.678 Y81.005 E15.82681
G1 X47.721 Y80.291 E15.8625
G1 X47.843 Y79.586 E15.8982
G1 X48.043 Y78.9 E15.93385
G1 X48.319 Y78.24 E15.96954
G1 X48.515 Y77.867 E15.99056
G1 X48.792 Y77.38 E16.01851
G1 X48.98 Y77.066 E16.03677
G1 X49.387 Y76.478 E16.07245
G1 X49.856 Y75.938 E16.10813
G1 X50.383 Y75.455 E16.14379
G1 X50.961 Y75.033 E16.1795
M205 X10 Y10
G0 F6000 X51.253 Y75.322
M205 X8 Y8
G1 F1200 X51.808 Y75.013 E16.21119
G1 X52.353 Y74.75 E16.24138
G1 X52.63 Y74.625 E16.25654
G1 X53.277 Y74.377 E16.29111
G1 X53.921 Y74.211 E16.32429
G1 X54.016 Y74.192 E16.32912
G1 X54.702 Y74.095 E16.36369
G1 X55.163 Y74.075 E16.38671
G1 X55.874 Y74.072 E16.42218
G1 X56.835 Y74.084 E16.47013
G1 X145.712 Y74.085 E20.90422
G1 X146.41 Y74.095 E20.93905
G1 X147.101 Y74.144 E20.97361
G1 X147.781 Y74.274 E21.00815
G1 X148.442 Y74.48 E21.04269
G1 X149.075 Y74.762 E21.07726
G1 X149.671 Y75.114 E21.1118
G1 X150.222 Y75.533 E21.14633
G1 X150.722 Y76.013 E21.18091
G1 X151.163 Y76.547 E21.21546
G1 X151.54 Y77.128 E21.25002
G1 X151.847 Y77.749 E21.28458
G1 X152.08 Y78.401 E21.31912
G1 X152.237 Y79.075 E21.35365
G1 X152.322 Y79.925 E21.39626
G1 X152.333 Y80.414 E21.42067
G1 X152.332 Y129.773 E23.8832
G1 X152.324 Y130.474 E23.91817
G1 X152.276 Y131.165 E23.95273
G1 X152.149 Y131.846 E23.98729
G1 X151.944 Y132.508 E24.02187
G1 X151.664 Y133.141 E24.0564
G1 X151.314 Y133.738 E24.09092
G1 X150.896 Y134.291 E24.12551
G1 X150.418 Y134.792 E24.16005
G1 X149.885 Y135.235 E24.19463
G1 X149.305 Y135.613 E24.22917
G1 X148.685 Y135.922 E24.26373
G1 X148.034 Y136.157 E24.29826
G1 X147.36 Y136.316 E24.33281
G1 X146.508 Y136.403 E24.37554
G1 X146.031 Y136.415 E24.39934
G1 X56.966 Y136.416 E28.84281
G1 X56.544 Y136.422 E28.86387
G1 X55.26 Y136.424 E28.92793
G1 X54.569 Y136.385 E28.96246
G1 X54.013 Y136.298 E28.99053
G1 X53.339 Y136.138 E29.02509
G1 X52.668 Y135.893 E29.06073
G1 X51.822 Y135.498 E29.10731
G1 X51.218 Y135.16 E29.14184
G1 X50.656 Y134.754 E29.17643
G1 X50.145 Y134.287 E29.21097
G1 X49.692 Y133.764 E29.24549
G1 X49.38 Y133.319 E29.2726
G1 X49.09 Y132.849 E29.30016
G1 X48.859 Y132.442 E29.3235
G1 X48.552 Y131.821 E29.35807
G1 X48.319 Y131.168 E29.39266
G1 X48.163 Y130.494 E29.42717
G1 X48.077 Y129.548 E29.47456
G1 X48.074 Y129.159 E29.49397
G1 X48.084 Y128.124 E29.54561
G1 X48.084 Y82.554 E31.8191
G1 X48.075 Y81.747 E31.85937
G1 X48.078 Y81.007 E31.89629
G1 X48.121 Y80.315 E31.93088
G1 X48.243 Y79.634 E31.96539
G1 X48.443 Y78.971 E31.99994
G1 X48.863 Y78.065 E32.04977
G1 X49.14 Y77.578 E32.07772
G1 X49.321 Y77.275 E32.09533
G1 X49.716 Y76.706 E32.12988
G1 X50.174 Y76.186 E32.16445
G1 X50.688 Y75.723 E32.19897
G1 X51.253 Y75.322 E32.23353
M205 X10 Y10
G0 F6000 X51.543 Y75.613
M205 X8 Y8
G1 F1200 X51.983 Y75.373 E32.25854
G1 X52.518 Y75.115 E32.28817
G1 X52.795 Y74.99 E32.30333
G1 X53.42 Y74.751 E32.33672
G1 X54 Y74.603 E32.36658
G1 X54.095 Y74.584 E32.37141
G1 X54.757 Y74.492 E32.40476
G1 X55.165 Y74.475 E32.42513
G1 X55.869 Y74.472 E32.46025
G1 X56.83 Y74.484 E32.5082
G1 X145.706 Y74.485 E36.94224
G1 X146.404 Y74.495 E36.97707
G1 X147.071 Y74.544 E37.01044
G1 X147.728 Y74.673 E37.04384
G1 X148.364 Y74.879 E37.07719
G1 X148.972 Y75.16 E37.11061
G1 X149.541 Y75.51 E37.14394
G1 X150.065 Y75.927 E37.17735
G1 X150.535 Y76.403 E37.21072
G1 X150.945 Y76.931 E37.24407
G1 X151.29 Y77.505 E37.27748
G1 X151.563 Y78.116 E37.31087
G1 X151.761 Y78.755 E37.34425
G1 X151.882 Y79.413 E37.37762
G1 X151.922 Y79.937 E37.40384
G1 X151.933 Y80.414 E37.42765
G1 X151.932 Y129.769 E39.88998
G1 X151.924 Y130.47 E39.92495
G1 X151.876 Y131.137 E39.95832
G1 X151.749 Y131.794 E39.9917
G1 X151.545 Y132.431 E40.02507
G1 X151.266 Y133.039 E40.05844
G1 X150.917 Y133.61 E40.09183
G1 X150.502 Y134.135 E40.12522
G1 X150.027 Y134.606 E40.15859
G1 X149.5 Y135.018 E40.19197
G1 X148.927 Y135.364 E40.22536
G1 X148.318 Y135.639 E40.2587
G1 X147.679 Y135.84 E40.29212
G1 X147.022 Y135.962 E40.32546
G1 X146.496 Y136.003 E40.35178
G1 X146.031 Y136.015 E40.37498
G1 X56.96 Y136.016 E44.81875
G1 X56.544 Y136.022 E44.83951
G1 X55.26 Y136.024 E44.90357
G1 X54.275 Y135.938 E44.9529
G1 X54.083 Y135.904 E44.96263
G1 X53.432 Y135.748 E44.99602
G1 X52.827 Y135.526 E45.02818
G1 X51.997 Y135.138 E45.07389
G1 X51.414 Y134.81 E45.10726
G1 X50.874 Y134.415 E45.14064
G1 X50.385 Y133.959 E45.174
G1 X49.954 Y133.447 E45.20739
G1 X49.582 Y132.891 E45.24076
G1 X49.207 Y132.244 E45.27807
G1 X48.912 Y131.644 E45.31143
G1 X48.691 Y131.012 E45.34483
G1 X48.546 Y130.359 E45.3782
G1 X48.477 Y129.544 E45.41901
G1 X48.474 Y129.163 E45.43801
G1 X48.484 Y128.128 E45.48965
G1 X48.484 Y82.549 E47.7636
G1 X48.475 Y81.748 E47.80356
G1 X48.478 Y81.008 E47.84048
G1 X48.521 Y80.341 E47.87383
G1 X48.643 Y79.683 E47.90722
G1 X48.842 Y79.044 E47.94061
G1 X49.21 Y78.262 E47.98372
G1 X49.487 Y77.775 E48.01168
G1 X49.662 Y77.483 E48.02866
G1 X50.045 Y76.935 E48.06202
G1 X50.49 Y76.435 E48.09541
G1 X50.992 Y75.993 E48.12878
G1 X51.543 Y75.613 E48.16217
M205 X10 Y10
G0 F6000 X51.83 Y75.907
M205 X8 Y8
G1 F1200 X52.54 Y75.546 E48.20191
G1 X52.959 Y75.354 E48.2249
G1 X53.562 Y75.126 E48.25707
G1 X54.078 Y74.995 E48.28363
G1 X54.173 Y74.976 E48.28846
G1 X54.812 Y74.889 E48.32063
G1 X55.167 Y74.875 E48.33836
G1 X55.864 Y74.872 E48.37313
G1 X56.825 Y74.884 E48.42108
G1 X145.7 Y74.885 E52.85507
G1 X146.398 Y74.895 E52.8899
G1 X147.041 Y74.944 E52.92207
G1 X147.673 Y75.072 E52.95424
G1 X148.284 Y75.278 E52.98641
G1 X148.865 Y75.557 E53.01857
G1 X149.407 Y75.906 E53.05073
G1 X149.901 Y76.32 E53.08288
G1 X150.341 Y76.792 E53.11508
G1 X150.719 Y77.314 E53.14723
G1 X151.029 Y77.879 E53.17938
G1 X151.267 Y78.478 E53.21154
G1 X151.429 Y79.102 E53.2437
G1 X151.522 Y79.948 E53.28616
G1 X151.533 Y80.414 E53.30942
G1 X151.532 Y129.764 E55.7715
G1 X151.524 Y130.465 E55.80648
G1 X151.476 Y131.108 E55.83864
G1 X151.35 Y131.74 E55.8708
G1 X151.146 Y132.352 E55.90298
G1 X150.868 Y132.934 E55.93516
G1 X150.521 Y133.477 E55.96731
G1 X150.108 Y133.972 E55.99947
G1 X149.638 Y134.413 E56.03163
G1 X149.117 Y134.792 E56.06377
G1 X148.552 Y135.104 E56.09597
G1 X147.954 Y135.344 E56.12812
G1 X147.33 Y135.508 E56.1603
G1 X146.484 Y135.604 E56.20278
G1 X146.031 Y135.615 E56.22539
G1 X56.954 Y135.616 E60.66946
G1 X56.543 Y135.622 E60.68997
G1 X55.259 Y135.624 E60.75402
G1 X54.344 Y135.544 E60.79985
G1 X54.152 Y135.51 E60.80958
G1 X53.526 Y135.359 E60.8417
G1 X52.987 Y135.159 E60.87039
G1 X52.172 Y134.778 E60.91527
G1 X51.61 Y134.461 E60.94746
G1 X51.093 Y134.077 E60.97959
G1 X50.626 Y133.632 E61.01177
G1 X50.055 Y132.89 E61.05848
G1 X49.786 Y132.454 E61.08404
G1 X49.555 Y132.047 E61.10739
G1 X49.272 Y131.467 E61.13959
G1 X49.063 Y130.858 E61.17171
G1 X48.931 Y130.227 E61.20387
G1 X48.877 Y129.539 E61.2383
G1 X48.874 Y129.167 E61.25686
G1 X48.884 Y128.132 E61.3085
G1 X48.884 Y82.544 E63.5829
G1 X48.875 Y81.75 E63.62251
G1 X48.878 Y81.01 E63.65943
G1 X48.921 Y80.367 E63.69158
G1 X49.042 Y79.734 E63.72373
G1 X49.242 Y79.12 E63.75595
G1 X49.558 Y78.46 E63.79246
G1 X49.835 Y77.973 E63.82041
G1 X50.004 Y77.692 E63.83677
G1 X50.373 Y77.164 E63.86891
G1 X50.806 Y76.686 E63.90108
G1 X51.294 Y76.265 E63.93324
G1 X51.83 Y75.907 E63.96539
M205 X10 Y10
G1 F1500 E57.96539
G1 F600 Z0.375
;MESH:body v19.3mf
G0 F6000 X55.316 Y129.416 Z0.375
M205 X8 Y8
;TYPE:WALL-INNER
G1 F600 Z0.3
G1 F1500 E63.96539
G1 F1200 X55.159 Y129.342 E63.97405
G1 X55.084 Y129.181 E63.98292
G1 X55.084 Y81.319 E66.37076
G1 X55.16 Y81.159 E66.3796
G1 X55.318 Y81.084 E66.38832
G1 X145.333 Y81.084 E70.87919
G1 X145.333 Y129.416 E73.29048
G1 X55.316 Y129.416 E77.78145
M205 X10 Y10
G0 F6000 X55.227 Y129.816
M205 X8 Y8
G1 F1200 X54.857 Y129.642 E77.80185
G1 X54.684 Y129.271 E77.82227
G1 X54.684 Y81.23 E80.21905
G1 X54.859 Y80.858 E80.23956
G1 X55.229 Y80.684 E80.25995
G1 X145.733 Y80.684 E84.77522
G1 X145.733 Y129.816 E87.22642
G1 X55.227 Y129.816 E91.74179
M205 X10 Y10
G0 F6000 X55.223 Y130.216
M205 X8 Y8
;TYPE:WALL-OUTER
G1 F1200 X55.157 Y130.225 E91.74511
G1 X54.575 Y129.951 E91.7772
G1 X54.271 Y129.437 E91.80699
G1 X54.284 Y129.257 E91.816
G1 X54.284 Y81.243 E94.21143
G1 X54.272 Y81.06 E94.22058
G1 X54.577 Y80.548 E94.25031
G1 X55.159 Y80.275 E94.28238
G1 X55.222 Y80.284 E94.28556
G1 X146.133 Y80.284 E98.82112
G1 X146.133 Y130.216 E101.31224
G1 X55.223 Y130.216 E105.84776
M205 X10 Y10
G0 F6000 X55.157 Y130.225
G0 X55.036 Y130.168
G0 X55.223 Y129.771
G0 X55.474 Y129.026
M205 X8 Y8
;TYPE:SKIN
G1 F1200 X55.474 Y81.474 E108.22014
G1 X144.943 Y81.474 E112.68376
G1 X144.943 Y129.026 E115.05614
G1 X55.474 Y129.026 E119.51977
M205 X10 Y10
G0 F6000 X55.872 Y128.845
M205 X8 Y8
G1 F1200 X55.654 Y128.627 E119.53515
M205 X10 Y10
G0 F6000 X55.654 Y128.061
M205 X8 Y8
G1 F1200 X56.437 Y128.845 E119.59043
M205 X10 Y10
G0 F6000 X57.003 Y128.845
M205 X8 Y8
G1 F1200 X55.654 Y127.496 E119.68561
M205 X10 Y10
G0 F6000 X55.654 Y126.93
M205 X8 Y8
G1 F1200 X57.569 Y128.845 E119.82072
M205 X10 Y10
G0 F6000 X58.134 Y128.845
M205 X8 Y8
G1 F1200 X55.654 Y126.364 E119.99574
M205 X10 Y10
G0 F6000 X55.654 Y125.799
M205 X8 Y8
G1 F1200 X58.7 Y128.845 E120.21065
M205 X10 Y10
G0 F6000 X59.266 Y128.845
M205 X8 Y8
G1 F1200 X55.654 Y125.233 E120.4655
M205 X10 Y10
G0 F6000 X55.654 Y124.667
M205 X8 Y8
G1 F1200 X59.831 Y128.845 E120.76024
M205 X10 Y10
G0 F6000 X60.397 Y128.845
M205 X8 Y8
G1 F1200 X55.654 Y124.102 E121.09488
M205 X10 Y10
G0 F6000 X55.654 Y123.536
M205 X8 Y8
G1 F1200 X60.963 Y128.845 E121.46946
M205 X10 Y10
G0 F6000 X61.528 Y128.845
M205 X8 Y8
G1 F1200 X55.654 Y122.97 E121.88394
M205 X10 Y10
G0 F6000 X55.654 Y122.405
M205 X8 Y8
G1 F1200 X62.094 Y128.845 E122.33832
M205 X10 Y10
G0 F6000 X62.66 Y128.845
M205 X8 Y8
G1 F1200 X55.654 Y121.839 E122.83263
M205 X10 Y10
G0 F6000 X55.654 Y121.273
M205 X8 Y8
G1 F1200 X63.225 Y128.845 E123.36684
M205 X10 Y10
G0 F6000 X63.791 Y128.845
M205 X8 Y8
G1 F1200 X55.654 Y120.708 E123.94095
M205 X10 Y10
G0 F6000 X55.654 Y120.142
M205 X8 Y8
G1 F1200 X64.357 Y128.845 E124.55499
M205 X10 Y10
G0 F6000 X64.923 Y128.845
M205 X8 Y8
G1 F1200 X55.654 Y119.576 E125.20897
M205 X10 Y10
G0 F6000 X55.654 Y119.011
M205 X8 Y8
G1 F1200 X65.488 Y128.845 E125.90281
M205 X10 Y10
G0 F6000 X66.054 Y128.845
M205 X8 Y8
G1 F1200 X55.654 Y118.445 E126.63659
M205 X10 Y10
G0 F6000 X55.654 Y117.879
M205 X8 Y8
G1 F1200 X66.62 Y128.845 E127.4103
M205 X10 Y10
G0 F6000 X67.185 Y128.845
M205 X8 Y8
G1 F1200 X55.654 Y117.313 E128.22391
M205 X10 Y10
G0 F6000 X55.654 Y116.748
M205 X8 Y8
G1 F1200 X67.751 Y128.845 E129.07742
M205 X10 Y10
G0 F6000 X68.317 Y128.845
M205 X8 Y8
G1 F1200 X55.654 Y116.182 E129.97086
M205 X10 Y10
G0 F6000 X55.654 Y115.616
M205 X8 Y8
G1 F1200 X68.882 Y128.845 E130.9042
M205 X10 Y10
G0 F6000 X69.448 Y128.845
M205 X8 Y8
G1 F1200 X55.654 Y115.051 E131.87744
M205 X10 Y10
G0 F6000 X55.654 Y114.485
M205 X8 Y8
G1 F1200 X70.014 Y128.845 E132.89062
M205 X10 Y10
G0 F6000 X70.579 Y128.845
M205 X8 Y8
G1 F1200 X55.654 Y113.919 E133.94369
M205 X10 Y10
G0 F6000 X55.654 Y113.354
M205 X8 Y8
G1 F1200 X71.145 Y128.845 E135.03667
M205 X10 Y10
G0 F6000 X71.711 Y128.845
M205 X8 Y8
G1 F1200 X55.654 Y112.788 E136.16958
M205 X10 Y10
G0 F6000 X55.654 Y112.222
M205 X8 Y8
G1 F1200 X72.276 Y128.845 E137.34238
M205 X10 Y10
G0 F6000 X72.842 Y128.845
M205 X8 Y8
G1 F1200 X55.654 Y111.657 E138.55509
M205 X10 Y10
G0 F6000 X55.654 Y111.091
M205 X8 Y8
G1 F1200 X73.408 Y128.845 E139.80773
M205 X10 Y10
G0 F6000 X73.973 Y128.845
M205 X8 Y8
G1 F1200 X55.654 Y110.525 E141.10027
M205 X10 Y10
G0 F6000 X55.654 Y109.96
M205 X8 Y8
G1 F1200 X74.539 Y128.845 E142.43271
M205 X10 Y10
G0 F6000 X75.105 Y128.845
M205 X8 Y8
G1 F1200 X55.654 Y109.394 E143.80508
M205 X10 Y10
G0 F6000 X55.654 Y108.828
M205 X8 Y8
G1 F1200 X75.671 Y128.845 E145.21739
M205 X10 Y10
G0 F6000 X76.236 Y128.845
M205 X8 Y8
G1 F1200 X55.654 Y108.262 E146.66959
M205 X10 Y10
G0 F6000 X55.654 Y107.697
M205 X8 Y8
G1 F1200 X76.802 Y128.845 E148.1617
M205 X10 Y10
G0 F6000 X77.368 Y128.845
M205 X8 Y8
G1 F1200 X55.654 Y107.131 E149.69374
M205 X10 Y10
G0 F6000 X55.654 Y106.565
M205 X8 Y8
G1 F1200 X77.933 Y128.845 E151.26568
M205 X10 Y10
G0 F6000 X78.499 Y128.845
M205 X8 Y8
G1 F1200 X55.654 Y106 E152.87752
M205 X10 Y10
G0 F6000 X55.654 Y105.434
M205 X8 Y8
G1 F1200 X79.065 Y128.845 E154.52929
M205 X10 Y10
G0 F6000 X79.63 Y128.845
M205 X8 Y8
G1 F1200 X55.654 Y104.868 E156.22096
M205 X10 Y10
G0 F6000 X55.654 Y104.303
M205 X8 Y8
G1 F1200 X80.196 Y128.845 E157.95253
M205 X10 Y10
G0 F6000 X80.762 Y128.845
M205 X8 Y8
G1 F1200 X55.654 Y103.737 E159.72404
M205 X10 Y10
G0 F6000 X55.654 Y103.171
M205 X8 Y8
