;FLAVOR:Marlin
;TIME:12464
;Filament used: 9.40983m
;Layer height: 0.2
;MINX:45.599
;MINY:71.649
;MINZ:0.3
;MAXX:176.537
;MAXY:142.449
;MAXZ:13.375
;Generated with Cura_SteamEngine 4.12.1
M82 ;absolute extrusion mode
G21                                        ; metric values 
G90                                        ; absolute positioning 
M82                                        ; set extruder to absolute mode 
M107                                       ; start with the fan off 
M140 S60           ; Start heating the bed 
G4 S60                                     ; wait 1 minute 
M104 S210         ; start heating the hot end 
M190 S60           ; wait for bed 
M109 S210         ; wait for hotend 
M300 S1000 P500                            ; BEEP heating done 
G28 X0 Y10 Z0                              ; move X/Y to min endstops 
M420 S1                                    ; Enable leveling 
M420 Z2.0                                  ; Set leveling fading height to 2 mm 
G0 Z0.15                                   ; lift nozzle a bit 
G92 E0                                     ; zero the extruded length 
G1 X50 E25 F500                            ; Extrude 25mm of filament in a 5cm line. 
G92 E0                                     ; zero the extruded length again 
G1 E-2 F500                                ; Retract a little 
G1 X120 F4000                              ; Quickly wipe away from the filament line`
G92 E0
G92 E0
G1 F1500 E-6
;LAYER_COUNT:66
;LAYER:0
M106 S76.5
M205 X10 Y10
G1 F600 Z0.375
G0 F6000 X56.465 Y72.823 Z0.375
M205 X8 Y8
;TYPE:SKIRT
G1 F600 Z0.3
G1 F1500 E0
G1 F1200 X57.072 Y72.445 E0.03568
G1 X57.718 Y72.137 E0.07138
G1 X58.394 Y71.903 E0.10707
G1 X59.091 Y71.745 E0.14272
G1 X59.967 Y71.661 E0.18663
G1 X60.467 Y71.649 E0.21158
G1 X68.478 Y71.649 E0.61125
G1 X69.268 Y71.66 E0.65067
G1 X69.802 Y71.69 E0.67735
G1 X70.923 Y71.8 E0.73355
G1 X73.616 Y72.029 E0.86839
G1 X76.254 Y72.177 E1.0002
G1 X78.933 Y72.252 E1.13391
G1 X81.576 Y72.252 E1.26577
G1 X84.181 Y72.177 E1.39579
G1 X86.861 Y72.025 E1.52971
G1 X89.51 Y71.799 E1.66235
G1 X90.493 Y71.695 E1.71167
G1 X91.015 Y71.661 E1.73776
G1 X91.515 Y71.649 E1.76272
G1 X141.056 Y71.65 E4.23433
G1 X141.754 Y71.66 E4.26915
G1 X142.288 Y71.69 E4.29584
G1 X143.409 Y71.8 E4.35203
G1 X146.102 Y72.029 E4.48687
G1 X148.74 Y72.177 E4.61869
G1 X151.419 Y72.252 E4.7524
G1 X154.062 Y72.252 E4.88426
G1 X156.667 Y72.177 E5.01427
G1 X159.347 Y72.025 E5.1482
G1 X161.996 Y71.799 E5.28083
G1 X162.979 Y71.695 E5.33015
G1 X163.501 Y71.661 E5.35625
G1 X164.001 Y71.649 E5.3812
G1 X164.521 Y71.65 E5.40714
G1 X165.227 Y71.66 E5.44237
G1 X165.92 Y71.693 E5.47698
G1 X166.393 Y71.734 E5.50067
G1 X167.114 Y71.838 E5.53701
G1 X167.708 Y71.962 E5.56729
G1 X168.025 Y72.037 E5.58354
G1 X168.688 Y72.232 E5.61802
G1 X169.197 Y72.416 E5.64502
G1 X169.525 Y72.544 E5.66258
G1 X170.179 Y72.843 E5.69846
G1 X170.714 Y73.127 E5.72868
G1 X170.97 Y73.271 E5.74333
G1 X171.595 Y73.672 E5.78038
G1 X172.082 Y74.03 E5.81054
G1 X172.333 Y74.225 E5.82639
G1 X172.859 Y74.682 E5.86116
G1 X173.257 Y75.072 E5.88896
G1 X173.495 Y75.317 E5.906
G1 X173.973 Y75.868 E5.94239
G1 X174.316 Y76.318 E5.97062
G1 X174.501 Y76.572 E5.9863
G1 X174.903 Y77.197 E6.02337
G1 X175.178 Y77.689 E6.05149
G1 X175.321 Y77.958 E6.06669
G1 X175.632 Y78.635 E6.10386
G1 X175.858 Y79.223 E6.13529
G1 X175.959 Y79.509 E6.15042
G1 X176.158 Y80.191 E6.18586
G1 X176.279 Y80.723 E6.21308
G1 X176.342 Y81.03 E6.22872
G1 X176.45 Y81.773 E6.26617
G1 X176.507 Y82.592 E6.30713
G1 X176.536 Y83.965 E6.37565
G1 X176.537 Y130.342 E8.68941
G1 X176.524 Y131.007 E8.72259
G1 X176.475 Y132.009 E8.77264
G1 X176.455 Y132.296 E8.78699
G1 X176.353 Y133.006 E8.82278
G1 X176.23 Y133.599 E8.85299
G1 X176.155 Y133.919 E8.86939
G1 X175.951 Y134.612 E8.90543
G1 X175.769 Y135.115 E8.93212
G1 X175.643 Y135.439 E8.94946
G1 X175.34 Y136.103 E8.98587
G1 X175.074 Y136.601 E9.01404
G1 X174.913 Y136.886 E9.03037
G1 X174.52 Y137.499 E9.0667
G1 X174.161 Y137.987 E9.09693
G1 X173.974 Y138.229 E9.11218
G1 X173.505 Y138.771 E9.14794
G1 X173.108 Y139.176 E9.17624
G1 X172.857 Y139.419 E9.19367
G1 X172.309 Y139.893 E9.22981
G1 X171.875 Y140.224 E9.25705
G1 X171.623 Y140.408 E9.27261
G1 X170.996 Y140.812 E9.30982
G1 X170.489 Y141.095 E9.33879
G1 X170.221 Y141.237 E9.35392
G1 X169.552 Y141.544 E9.39065
G1 X168.959 Y141.772 E9.42234
G1 X168.675 Y141.872 E9.43736
G1 X167.996 Y142.069 E9.47264
G1 X167.46 Y142.191 E9.50006
G1 X167.125 Y142.259 E9.51712
G1 X166.393 Y142.364 E9.55401
G1 X165.854 Y142.408 E9.58099
G1 X165.301 Y142.437 E9.60862
G1 X164.801 Y142.449 E9.63357
G1 X164.286 Y142.448 E9.65926
G1 X163.589 Y142.438 E9.69404
G1 X163.055 Y142.408 E9.72072
G1 X161.933 Y142.298 E9.77697
G1 X159.24 Y142.069 E9.91181
G1 X156.602 Y141.921 E10.04363
G1 X153.923 Y141.846 E10.17733
G1 X151.28 Y141.846 E10.30919
G1 X148.675 Y141.921 E10.43921
G1 X145.995 Y142.073 E10.57313
G1 X143.346 Y142.299 E10.70577
G1 X142.363 Y142.403 E10.75509
G1 X141.841 Y142.437 E10.78118
G1 X141.341 Y142.449 E10.80614
G1 X91.8 Y142.448 E13.27775
G1 X91.102 Y142.438 E13.31257
G1 X90.568 Y142.408 E13.33926
G1 X89.447 Y142.298 E13.39545
G1 X86.754 Y142.069 E13.53029
G1 X84.116 Y141.921 E13.66211
G1 X81.437 Y141.846 E13.79582
G1 X78.794 Y141.846 E13.92768
G1 X76.189 Y141.921 E14.0577
G1 X73.509 Y142.073 E14.19162
G1 X70.86 Y142.299 E14.32426
G1 X69.877 Y142.403 E14.37357
G1 X69.355 Y142.437 E14.39967
G1 X68.855 Y142.449 E14.42462
G1 X60.753 Y142.448 E14.82883
G1 X60.052 Y142.438 E14.86381
G1 X59.338 Y142.388 E14.89952
G1 X58.635 Y142.259 E14.93518
G1 X57.95 Y142.052 E14.97088
G1 X57.293 Y141.769 E15.00657
G1 X56.671 Y141.416 E15.04225
G1 X56.093 Y140.995 E15.07792
G1 X55.565 Y140.512 E15.11362
G1 X55.095 Y139.973 E15.1493
G1 X54.687 Y139.385 E15.18501
G1 X54.256 Y138.594 E15.22995
G1 X53.913 Y137.904 E15.26839
G1 X53.633 Y137.247 E15.30402
G1 X53.427 Y136.561 E15.33976
G1 X53.299 Y135.858 E15.37541
G1 X53.254 Y135.299 E15.40338
G1 X53.24 Y134.639 E15.43632
G1 X53.24 Y79.633 E18.18058
G1 X53.25 Y78.946 E18.21486
G1 X53.3 Y78.232 E18.25057
G1 X53.495 Y77.281 E18.299
G1 X53.736 Y76.584 E18.33579
G1 X53.938 Y76.142 E18.36004
G1 X54.35 Y75.323 E18.40578
G1 X54.563 Y74.93 E18.42808
G1 X54.947 Y74.326 E18.46379
G1 X55.395 Y73.769 E18.49945
G1 X55.904 Y73.266 E18.53515
G1 X56.465 Y72.823 E18.57081
M205 X10 Y10
G0 F6000 X56.767 Y73.1
M205 X8 Y8
G1 F1200 X57.361 Y72.743 E18.60539
G1 X57.992 Y72.458 E18.63993
G1 X58.652 Y72.247 E18.6745
G1 X59.331 Y72.114 E18.70902
G1 X59.978 Y72.06 E18.74141
G1 X60.467 Y72.049 E18.76581
G1 X68.478 Y72.049 E19.16548
G1 X69.262 Y72.06 E19.2046
G1 X69.763 Y72.088 E19.22964
G1 X70.863 Y72.196 E19.28478
G1 X73.596 Y72.428 E19.42162
G1 X76.255 Y72.577 E19.55448
G1 X78.922 Y72.652 E19.68759
G1 X81.552 Y72.652 E19.81881
G1 X84.249 Y72.575 E19.95341
G1 X86.884 Y72.425 E20.08509
G1 X89.537 Y72.199 E20.21793
G1 X90.529 Y72.094 E20.26769
G1 X91.346 Y72.051 E20.30851
G1 X91.515 Y72.049 E20.31694
G1 X141.05 Y72.05 E22.78825
G1 X141.748 Y72.06 E22.82308
G1 X142.249 Y72.088 E22.84811
G1 X143.349 Y72.196 E22.90326
G1 X146.082 Y72.428 E23.0401
G1 X148.741 Y72.577 E23.17296
G1 X151.408 Y72.652 E23.30607
G1 X154.038 Y72.652 E23.43729
G1 X156.735 Y72.575 E23.57189
G1 X159.37 Y72.425 E23.70357
G1 X162.023 Y72.199 E23.83641
G1 X163.015 Y72.094 E23.88617
G1 X163.832 Y72.051 E23.92699
G1 X164.43 Y72.049 E23.95682
G1 X165.221 Y72.06 E23.99629
G1 X165.885 Y72.091 E24.02945
G1 X166.358 Y72.132 E24.05314
G1 X167.034 Y72.23 E24.08722
G1 X167.615 Y72.351 E24.11683
G1 X167.932 Y72.426 E24.13308
G1 X168.554 Y72.609 E24.16543
G1 X169.051 Y72.789 E24.1918
G1 X169.379 Y72.917 E24.20936
G1 X169.993 Y73.197 E24.24303
G1 X170.518 Y73.476 E24.27269
G1 X170.774 Y73.62 E24.28735
G1 X171.36 Y73.996 E24.32208
G1 X171.837 Y74.346 E24.3516
G1 X172.088 Y74.541 E24.36746
G1 X172.58 Y74.969 E24.39999
G1 X172.97 Y75.35 E24.42719
G1 X173.208 Y75.595 E24.44423
G1 X173.656 Y76.113 E24.4784
G1 X173.993 Y76.554 E24.50609
G1 X174.178 Y76.808 E24.52177
G1 X174.555 Y77.394 E24.55653
G1 X174.825 Y77.877 E24.58414
G1 X174.968 Y78.146 E24.59934
G1 X175.259 Y78.78 E24.63414
G1 X175.481 Y79.356 E24.66494
G1 X175.582 Y79.642 E24.68007
G1 X175.768 Y80.282 E24.71332
G1 X175.888 Y80.804 E24.74004
G1 X175.951 Y81.111 E24.75568
G1 X176.051 Y81.807 E24.79076
G1 X176.107 Y82.6 E24.83042
G1 X176.136 Y83.973 E24.89893
G1 X176.137 Y130.342 E27.21229
G1 X176.125 Y130.987 E27.24448
G1 X176.076 Y131.989 E27.29453
G1 X176.056 Y132.262 E27.30818
G1 X175.961 Y132.927 E27.3417
G1 X175.841 Y133.508 E27.37129
G1 X175.766 Y133.828 E27.38769
G1 X175.574 Y134.477 E27.42146
G1 X175.396 Y134.97 E27.44761
G1 X175.27 Y135.294 E27.46495
G1 X174.986 Y135.916 E27.49906
G1 X174.726 Y136.404 E27.52665
G1 X174.565 Y136.689 E27.54298
G1 X174.196 Y137.264 E27.57707
G1 X173.845 Y137.743 E27.60669
G1 X173.658 Y137.985 E27.62195
G1 X173.218 Y138.492 E27.65544
G1 X172.829 Y138.889 E27.68317
G1 X172.578 Y139.132 E27.7006
G1 X172.065 Y139.576 E27.73445
G1 X171.639 Y139.901 E27.76118
G1 X171.387 Y140.085 E27.77675
G1 X170.799 Y140.464 E27.81165
G1 X170.302 Y140.742 E27.84006
G1 X170.034 Y140.884 E27.85519
G1 X169.407 Y141.171 E27.8896
G1 X168.826 Y141.394 E27.92064
G1 X168.542 Y141.494 E27.93567
G1 X167.905 Y141.68 E27.96877
G1 X167.381 Y141.799 E27.99558
G1 X167.046 Y141.867 E28.01264
G1 X166.359 Y141.966 E28.04726
G1 X165.83 Y142.008 E28.07374
G1 X165.29 Y142.038 E28.10072
G1 X164.378 Y142.049 E28.14622
G1 X163.595 Y142.038 E28.18529
G1 X163.094 Y142.01 E28.21033
G1 X161.993 Y141.902 E28.26552
G1 X159.26 Y141.67 E28.40236
G1 X156.601 Y141.521 E28.53523
G1 X153.934 Y141.446 E28.66834
G1 X151.304 Y141.446 E28.79955
G1 X148.607 Y141.523 E28.93415
G1 X145.972 Y141.673 E29.06583
G1 X143.319 Y141.899 E29.19867
G1 X142.327 Y142.004 E29.24843
G1 X141.51 Y142.047 E29.28925
G1 X141.341 Y142.049 E29.29768
G1 X91.806 Y142.048 E31.76899
G1 X91.108 Y142.038 E31.80382
G1 X90.607 Y142.01 E31.82885
G1 X89.507 Y141.902 E31.884
G1 X86.774 Y141.67 E32.02084
G1 X84.115 Y141.521 E32.1537
G1 X81.448 Y141.446 E32.28681
G1 X78.818 Y141.446 E32.41803
G1 X76.121 Y141.523 E32.55263
G1 X73.486 Y141.673 E32.68431
G1 X70.833 Y141.899 E32.81715
G1 X69.841 Y142.004 E32.86691
G1 X69.024 Y142.047 E32.90773
G1 X68.855 Y142.049 E32.91616
G1 X60.758 Y142.048 E33.32012
G1 X60.057 Y142.038 E33.3551
G1 X59.367 Y141.989 E33.38961
G1 X58.686 Y141.859 E33.4242
G1 X58.025 Y141.653 E33.45874
G1 X57.393 Y141.371 E33.49327
G1 X56.796 Y141.019 E33.52784
G1 X56.245 Y140.6 E33.56238
G1 X55.745 Y140.121 E33.59692
G1 X55.304 Y139.587 E33.63148
G1 X54.829 Y138.824 E33.67632
G1 X54.547 Y138.283 E33.70675
G1 X54.272 Y137.727 E33.7377
G1 X54.001 Y137.09 E33.77224
G1 X53.806 Y136.425 E33.80681
G1 X53.688 Y135.743 E33.84134
G1 X53.647 Y135.091 E33.87393
G1 X53.64 Y134.575 E33.89968
G1 X53.64 Y79.639 E36.64045
G1 X53.65 Y78.952 E36.67473
G1 X53.7 Y78.261 E36.70929
G1 X53.88 Y77.391 E36.75361
G1 X54.114 Y76.716 E36.78926
G1 X54.295 Y76.322 E36.81089
G1 X54.707 Y75.503 E36.85663
G1 X54.912 Y75.125 E36.87808
G1 X55.284 Y74.542 E36.91258
G1 X55.722 Y74.005 E36.94715
G1 X56.218 Y73.522 E36.98169
G1 X56.767 Y73.1 E37.01624
M205 X10 Y10
G0 F6000 X57.068 Y73.38
M205 X8 Y8
G1 F1200 X57.648 Y73.046 E37.04963
G1 X58.263 Y72.784 E37.08298
G1 X58.906 Y72.597 E37.11639
G1 X59.566 Y72.488 E37.14977
G1 X60.31 Y72.451 E37.18693
G1 X60.467 Y72.449 E37.19476
G1 X68.478 Y72.449 E37.59443
G1 X69.256 Y72.46 E37.63325
G1 X69.724 Y72.486 E37.65664
G1 X70.857 Y72.597 E37.71343
G1 X73.573 Y72.828 E37.84942
G1 X76.223 Y72.977 E37.98184
G1 X78.91 Y73.052 E38.11595
G1 X81.564 Y73.052 E38.24836
G1 X84.248 Y72.975 E38.38232
G1 X86.905 Y72.824 E38.51509
G1 X89.616 Y72.593 E38.65083
G1 X90.564 Y72.492 E38.6984
G1 X91.358 Y72.451 E38.73806
G1 X91.515 Y72.449 E38.74589
G1 X141.044 Y72.45 E41.21691
G1 X141.742 Y72.46 E41.25173
G1 X142.21 Y72.486 E41.27512
G1 X143.343 Y72.597 E41.33191
G1 X146.059 Y72.828 E41.46791
G1 X148.709 Y72.977 E41.60032
G1 X151.396 Y73.052 E41.73443
G1 X154.05 Y73.052 E41.86684
G1 X156.734 Y72.975 E42.0008
G1 X159.391 Y72.824 E42.13357
G1 X162.102 Y72.593 E42.26931
G1 X163.05 Y72.492 E42.31688
G1 X163.844 Y72.451 E42.35654
G1 X164.43 Y72.449 E42.38578
G1 X165.215 Y72.46 E42.42495
G1 X165.851 Y72.49 E42.45671
G1 X166.324 Y72.531 E42.4804
G1 X166.954 Y72.622 E42.51216
G1 X167.523 Y72.74 E42.54115
G1 X167.84 Y72.815 E42.5574
G1 X168.421 Y72.986 E42.58761
G1 X168.906 Y73.161 E42.61334
G1 X169.234 Y73.289 E42.6309
G1 X169.807 Y73.551 E42.66234
G1 X170.321 Y73.824 E42.69137
G1 X170.577 Y73.968 E42.70603
G1 X171.125 Y74.319 E42.73849
G1 X171.592 Y74.662 E42.7674
G1 X171.842 Y74.857 E42.78322
G1 X172.302 Y75.256 E42.8136
G1 X172.683 Y75.629 E42.8402
G1 X172.921 Y75.874 E42.85724
G1 X173.339 Y76.357 E42.88911
G1 X173.67 Y76.789 E42.91626
G1 X173.855 Y77.043 E42.93194
G1 X174.206 Y77.59 E42.96436
G1 X174.472 Y78.064 E42.99148
G1 X174.615 Y78.333 E43.00668
G1 X174.887 Y78.926 E43.03923
G1 X175.103 Y79.489 E43.06931
G1 X175.204 Y79.775 E43.08445
G1 X175.379 Y80.372 E43.11548
G1 X175.496 Y80.884 E43.14169
G1 X175.559 Y81.191 E43.15732
G1 X175.653 Y81.841 E43.19009
G1 X175.707 Y82.609 E43.2285
G1 X175.737 Y84.1 E43.3029
G1 X175.736 Y130.422 E45.61391
G1 X175.725 Y130.968 E45.64116
G1 X175.676 Y131.97 E45.69121
G1 X175.658 Y132.227 E45.70406
G1 X175.569 Y132.848 E45.73536
G1 X175.451 Y133.417 E45.76435
G1 X175.376 Y133.737 E45.78075
G1 X175.198 Y134.342 E45.81221
G1 X175.023 Y134.825 E45.83784
G1 X174.897 Y135.149 E45.85518
G1 X174.632 Y135.73 E45.88704
G1 X174.378 Y136.207 E45.91401
G1 X174.217 Y136.492 E45.93034
G1 X173.872 Y137.029 E45.96218
G1 X173.528 Y137.498 E45.9912
G1 X173.341 Y137.74 E46.00646
G1 X172.931 Y138.214 E46.03772
G1 X172.551 Y138.601 E46.06478
G1 X172.3 Y138.844 E46.08221
G1 X171.821 Y139.259 E46.11383
G1 X171.403 Y139.578 E46.14006
G1 X171.151 Y139.762 E46.15563
G1 X170.602 Y140.115 E46.18819
G1 X170.115 Y140.388 E46.21605
G1 X169.847 Y140.53 E46.23118
G1 X169.261 Y140.799 E46.26335
G1 X168.693 Y141.017 E46.2937
G1 X168.409 Y141.117 E46.30872
G1 X167.815 Y141.29 E46.33959
G1 X167.301 Y141.407 E46.36589
G1 X166.966 Y141.475 E46.38294
G1 X166.326 Y141.567 E46.4152
G1 X165.807 Y141.609 E46.44118
G1 X165.278 Y141.638 E46.46761
G1 X164.378 Y141.649 E46.51251
G1 X163.601 Y141.638 E46.55128
G1 X163.134 Y141.612 E46.57462
G1 X162.007 Y141.501 E46.63111
G1 X159.283 Y141.27 E46.7675
G1 X156.633 Y141.121 E46.89992
G1 X153.946 Y141.046 E47.03403
G1 X151.292 Y141.046 E47.16644
G1 X148.608 Y141.123 E47.3004
G1 X145.951 Y141.274 E47.43317
G1 X143.24 Y141.505 E47.56891
G1 X142.292 Y141.606 E47.61648
G1 X141.498 Y141.647 E47.65614
G1 X141.341 Y141.649 E47.66397
G1 X91.812 Y141.648 E50.13499
G1 X91.114 Y141.638 E50.16981
G1 X90.646 Y141.612 E50.1932
G1 X89.513 Y141.501 E50.24999
G1 X86.797 Y141.27 E50.38599
G1 X84.147 Y141.121 E50.5184
G1 X81.46 Y141.046 E50.65251
G1 X78.806 Y141.046 E50.78492
G1 X76.122 Y141.123 E50.91888
G1 X73.465 Y141.274 E51.05165
G1 X70.754 Y141.505 E51.18739
G1 X69.806 Y141.606 E51.23496
G1 X69.012 Y141.647 E51.27462
G1 X68.855 Y141.649 E51.28246
G1 X60.764 Y141.648 E51.68612
G1 X60.063 Y141.638 E51.72109
G1 X59.396 Y141.589 E51.75446
G1 X58.739 Y141.46 E51.78786
G1 X58.103 Y141.254 E51.82122
G1 X57.496 Y140.974 E51.85457
G1 X56.926 Y140.623 E51.88796
G1 X56.402 Y140.206 E51.92137
G1 X55.932 Y139.73 E51.95475
G1 X55.522 Y139.202 E51.9881
G1 X55.183 Y138.638 E52.02093
G1 X54.905 Y138.106 E52.05088
G1 X54.63 Y137.55 E52.08182
G1 X54.37 Y136.933 E52.11523
G1 X54.185 Y136.29 E52.14861
G1 X54.078 Y135.63 E52.18196
G1 X54.047 Y135.077 E52.2096
G1 X54.04 Y134.575 E52.23464
G1 X54.04 Y79.644 E54.97516
G1 X54.05 Y78.957 E55.00944
G1 X54.099 Y78.29 E55.04281
G1 X54.264 Y77.501 E55.08302
G1 X54.492 Y76.848 E55.11753
G1 X54.652 Y76.501 E55.13659
G1 X55.064 Y75.682 E55.18233
G1 X55.261 Y75.321 E55.20285
G1 X55.622 Y74.758 E55.23622
G1 X56.048 Y74.242 E55.2696
G1 X56.532 Y73.78 E55.30298
G1 X57.068 Y73.38 E55.33635
M205 X10 Y10
G0 F6000 X57.367 Y73.663
M205 X8 Y8
G1 F1200 X57.932 Y73.353 E55.3685
G1 X58.531 Y73.115 E55.40066
