;FLAVOR:Marlin
;TIME:2268
;Filament used: 1.63337m
;Layer height: 0.2
;MINX:91.6
;MINY:67.95
;MINZ:0.3
;MAXX:117.551
;MAXY:142.05
;MAXZ:17.175
;Generated with Cura_SteamEngine 4.12.1
M82 ;absolute extrusion mode
G21                                        ; metric values 
G90                                        ; absolute positioning 
M82                                        ; set extruder to absolute mode 
M107                                       ; start with the fan off 
M140 S60           ; Start heating the bed 
G4 S60                                     ; wait 1 minute 
M104 S210         ; start heating the hot end 
M190 S60           ; wait for bed 
M109 S210         ; wait for hotend 
M300 S1000 P500                            ; BEEP heating done 
G28 X0 Y10 Z0                              ; move X/Y to min endstops 
M420 S1                                    ; Enable leveling 
M420 Z2.0                                  ; Set leveling fading height to 2 mm 
G0 Z0.15                                   ; lift nozzle a bit 
G92 E0                                     ; zero the extruded length 
G1 X50 E25 F500                            ; Extrude 25mm of filament in a 5cm line. 
G92 E0                                     ; zero the extruded length again 
G1 E-2 F500                                ; Retract a little 
G1 X120 F4000                              ; Quickly wipe away from the filament line`
G92 E0
G92 E0
G1 F1500 E-6
;LAYER_COUNT:85
;LAYER:0
M106 S76.5
M205 X10 Y10
G1 F600 Z0.375
G0 F6000 X93.051 Y70.313 Z0.375
M205 X8 Y8
;TYPE:SKIRT
G1 F600 Z0.3
G1 F1500 E0
G1 F1200 X93.533 Y69.785 E0.03567
G1 X94.071 Y69.314 E0.07134
G1 X94.659 Y68.906 E0.10705
G1 X95.288 Y68.566 E0.14272
G1 X95.952 Y68.299 E0.17842
G1 X96.641 Y68.107 E0.21411
G1 X97.347 Y67.993 E0.24979
G1 X98.151 Y67.953 E0.28995
G1 X98.33 Y67.95 E0.29888
G1 X106.293 Y67.95 E0.69616
G1 X106.991 Y67.963 E0.73098
G1 X107.832 Y68.005 E0.77299
G1 X108.582 Y68.087 E0.81064
G1 X109.351 Y68.23 E0.84966
G1 X109.538 Y68.274 E0.85924
G1 X110.176 Y68.46 E0.8924
G1 X110.765 Y68.665 E0.92351
G1 X111.616 Y69.032 E0.96975
G1 X112.352 Y69.429 E1.01147
G1 X112.631 Y69.597 E1.02772
G1 X113.201 Y69.983 E1.06206
G1 X113.84 Y70.483 E1.10254
G1 X114.324 Y70.926 E1.13528
G1 X114.788 Y71.402 E1.16844
G1 X115.121 Y71.784 E1.19372
G1 X115.636 Y72.463 E1.23624
G1 X116.043 Y73.093 E1.27366
G1 X116.233 Y73.429 E1.29292
G1 X116.488 Y73.93 E1.32096
G1 X116.684 Y74.361 E1.34458
G1 X116.893 Y74.88 E1.3725
G1 X117.12 Y75.558 E1.40817
G1 X117.13 Y75.593 E1.40998
G1 X117.253 Y76.103 E1.43616
G1 X117.387 Y76.777 E1.47044
G1 X117.49 Y77.525 E1.50811
G1 X117.521 Y78.046 E1.53415
G1 X117.549 Y79.407 E1.60207
G1 X117.551 Y130.792 E4.16567
G1 X117.54 Y131.588 E4.20539
G1 X117.509 Y132.25 E4.23845
G1 X117.483 Y132.553 E4.25363
G1 X117.415 Y133.084 E4.28033
G1 X117.276 Y133.824 E4.3179
G1 X117.227 Y134.033 E4.32861
G1 X117.041 Y134.673 E4.36186
G1 X116.837 Y135.26 E4.39286
G1 X116.472 Y136.108 E4.43892
G1 X116.065 Y136.862 E4.48167
G1 X115.897 Y137.14 E4.49788
G1 X115.52 Y137.696 E4.53139
G1 X115.001 Y138.36 E4.57344
G1 X114.618 Y138.779 E4.60176
G1 X114.114 Y139.273 E4.63697
G1 X113.712 Y139.624 E4.66359
G1 X113.038 Y140.136 E4.70582
G1 X112.401 Y140.547 E4.74364
G1 X112.066 Y140.736 E4.76283
G1 X111.57 Y140.988 E4.79059
G1 X111.139 Y141.184 E4.81421
G1 X110.626 Y141.391 E4.84181
G1 X109.898 Y141.633 E4.88008
G1 X109.393 Y141.754 E4.90599
G1 X108.717 Y141.888 E4.94037
G1 X107.98 Y141.99 E4.97749
G1 X107.454 Y142.021 E5.00378
G1 X106.093 Y142.049 E5.07169
G1 X98.707 Y142.05 E5.44018
G1 X97.917 Y142.039 E5.4796
G1 X97.204 Y141.989 E5.51526
G1 X96.5 Y141.86 E5.55096
G1 X95.816 Y141.652 E5.58663
G1 X95.159 Y141.37 E5.6223
G1 X94.537 Y141.016 E5.65801
G1 X93.959 Y140.595 E5.69368
G1 X93.431 Y140.112 E5.72938
G1 X92.961 Y139.574 E5.76502
G1 X92.553 Y138.986 E5.80073
G1 X92.214 Y138.356 E5.83642
G1 X91.947 Y137.693 E5.87208
G1 X91.756 Y137.003 E5.9078
G1 X91.643 Y136.297 E5.94347
G1 X91.602 Y135.481 E5.98423
G1 X91.6 Y135.308 E5.99286
G1 X91.601 Y74.936 E9.00483
G1 X91.61 Y74.272 E9.03797
G1 X91.659 Y73.559 E9.07362
G1 X91.788 Y72.855 E9.10933
G1 X91.995 Y72.17 E9.14503
G1 X92.277 Y71.513 E9.1807
G1 X92.63 Y70.891 E9.21638
G1 X93.051 Y70.313 E9.25205
M205 X10 Y10
G0 F6000 X93.445 Y70.464
M205 X8 Y8
G1 F1200 X93.924 Y69.964 E9.2866
G1 X94.458 Y69.523 E9.32115
G1 X95.039 Y69.146 E9.35571
G1 X95.659 Y68.838 E9.39024
G1 X96.311 Y68.604 E9.4248
G1 X96.986 Y68.447 E9.45938
G1 X97.841 Y68.361 E9.50225
G1 X98.33 Y68.35 E9.52665
G1 X106.293 Y68.35 E9.92393
G1 X106.971 Y68.362 E9.95776
G1 X107.812 Y68.404 E9.99977
G1 X108.515 Y68.481 E10.03505
G1 X109.259 Y68.619 E10.0728
G1 X109.446 Y68.663 E10.08239
G1 X110.044 Y68.837 E10.11346
G1 X110.633 Y69.042 E10.14457
G1 X111.431 Y69.387 E10.18795
G1 X112.146 Y69.772 E10.22846
G1 X112.425 Y69.94 E10.24471
G1 X112.959 Y70.302 E10.27689
G1 X113.58 Y70.786 E10.31618
G1 X114.05 Y71.217 E10.34799
G1 X114.497 Y71.676 E10.37995
G1 X114.939 Y72.197 E10.41404
G1 X115.314 Y72.699 E10.4453
G1 X115.695 Y73.29 E10.48038
G1 X115.885 Y73.626 E10.49964
G1 X116.124 Y74.095 E10.5259
G1 X116.32 Y74.526 E10.54952
G1 X116.516 Y75.013 E10.57571
G1 X116.735 Y75.668 E10.61017
G1 X116.861 Y76.181 E10.63653
G1 X116.995 Y76.855 E10.67081
G1 X117.092 Y77.556 E10.70612
G1 X117.121 Y78.055 E10.73105
G1 X117.15 Y79.539 E10.8051
G1 X117.15 Y130.877 E13.36637
G1 X117.14 Y131.582 E13.40154
G1 X117.11 Y132.216 E13.43321
G1 X117.084 Y132.519 E13.44838
G1 X117.02 Y133.017 E13.47343
G1 X116.887 Y133.733 E13.50976
G1 X116.838 Y133.942 E13.52047
G1 X116.664 Y134.542 E13.55164
G1 X116.46 Y135.129 E13.58264
G1 X116.117 Y135.923 E13.6258
G1 X115.723 Y136.655 E13.66727
G1 X115.555 Y136.933 E13.68347
G1 X115.202 Y137.454 E13.71487
G1 X114.698 Y138.098 E13.75567
G1 X114.325 Y138.506 E13.78325
G1 X113.839 Y138.983 E13.81722
G1 X113.296 Y139.444 E13.85276
G1 X112.802 Y139.813 E13.88352
G1 X112.204 Y140.199 E13.91903
G1 X111.869 Y140.388 E13.93822
G1 X111.405 Y140.624 E13.96419
G1 X110.974 Y140.82 E13.98782
G1 X110.493 Y141.014 E14.01369
G1 X109.791 Y141.247 E14.05059
G1 X109.316 Y141.361 E14.07496
G1 X108.64 Y141.495 E14.10935
G1 X107.948 Y141.591 E14.1442
G1 X107.445 Y141.621 E14.16934
G1 X105.961 Y141.65 E14.24339
G1 X98.621 Y141.649 E14.60958
G1 X97.923 Y141.639 E14.64441
G1 X97.232 Y141.59 E14.67897
G1 X96.552 Y141.46 E14.71351
G1 X95.891 Y141.254 E14.74805
G1 X95.258 Y140.972 E14.78263
G1 X94.662 Y140.62 E14.81716
G1 X94.111 Y140.201 E14.85169
G1 X93.611 Y139.721 E14.88627
G1 X93.17 Y139.187 E14.92083
G1 X92.793 Y138.606 E14.95538
G1 X92.486 Y137.985 E14.98994
G1 X92.253 Y137.333 E15.02448
G1 X92.096 Y136.659 E15.05901
G1 X92.011 Y135.803 E15.10193
G1 X92 Y135.308 E15.12663
G1 X92.001 Y74.942 E18.1383
G1 X92.01 Y74.278 E18.17143
G1 X92.059 Y73.587 E18.20599
G1 X92.187 Y72.906 E18.24056
G1 X92.394 Y72.245 E18.27512
G1 X92.675 Y71.612 E18.30967
G1 X93.027 Y71.016 E18.3442
G1 X93.445 Y70.464 E18.37875
M205 X10 Y10
G0 F6000 X93.839 Y70.621
M205 X8 Y8
G1 F1200 X94.315 Y70.151 E18.41212
G1 X94.843 Y69.74 E18.4455
G1 X95.416 Y69.395 E18.47887
G1 X96.027 Y69.122 E18.51226
G1 X96.665 Y68.923 E18.5456
G1 X97.323 Y68.801 E18.57899
G1 X97.852 Y68.761 E18.60546
G1 X98.33 Y68.75 E18.62931
G1 X106.367 Y68.75 E19.03028
G1 X106.951 Y68.762 E19.05942
G1 X107.792 Y68.804 E19.10143
G1 X108.448 Y68.876 E19.13435
G1 X109.168 Y69.009 E19.17088
G1 X109.355 Y69.053 E19.18047
G1 X109.913 Y69.215 E19.20945
G1 X110.502 Y69.42 E19.24057
G1 X111.247 Y69.742 E19.28106
G1 X111.94 Y70.115 E19.32032
G1 X112.219 Y70.283 E19.33657
G1 X112.717 Y70.62 E19.36657
G1 X113.319 Y71.09 E19.40467
G1 X113.775 Y71.508 E19.43554
G1 X114.206 Y71.951 E19.46637
G1 X114.627 Y72.447 E19.49883
G1 X114.991 Y72.935 E19.5292
G1 X115.347 Y73.487 E19.56197
G1 X115.76 Y74.261 E19.60574
G1 X116.139 Y75.146 E19.65377
G1 X116.351 Y75.778 E19.68703
G1 X116.469 Y76.259 E19.71174
G1 X116.603 Y76.933 E19.74602
G1 X116.693 Y77.587 E19.77896
G1 X116.721 Y78.063 E19.80275
G1 X116.75 Y79.539 E19.8764
G1 X116.75 Y130.871 E22.43736
G1 X116.736 Y131.741 E22.48077
G1 X116.685 Y132.485 E22.51798
G1 X116.565 Y133.306 E22.55937
G1 X116.448 Y133.85 E22.58713
G1 X116.286 Y134.41 E22.61622
G1 X116.082 Y134.997 E22.64722
G1 X115.762 Y135.739 E22.68754
G1 X115.381 Y136.448 E22.72769
G1 X115.213 Y136.726 E22.7439
G1 X114.883 Y137.213 E22.77325
G1 X114.396 Y137.836 E22.8127
G1 X114.033 Y138.233 E22.83954
G1 X113.563 Y138.692 E22.87231
G1 X113.046 Y139.132 E22.90618
G1 X112.566 Y139.49 E22.93606
G1 X112.008 Y139.85 E22.96919
G1 X111.239 Y140.26 E23.01266
G1 X110.359 Y140.637 E23.06043
G1 X109.684 Y140.862 E23.09592
G1 X109.238 Y140.969 E23.11881
G1 X108.562 Y141.103 E23.15319
G1 X107.917 Y141.192 E23.18567
G1 X107.437 Y141.221 E23.20966
G1 X105.961 Y141.25 E23.28332
G1 X98.627 Y141.249 E23.64921
G1 X97.929 Y141.239 E23.68404
G1 X97.262 Y141.19 E23.7174
G1 X96.605 Y141.061 E23.75081
G1 X95.969 Y140.855 E23.78416
G1 X95.361 Y140.574 E23.81758
G1 X94.792 Y140.224 E23.8509
G1 X94.268 Y139.807 E23.88431
G1 X93.798 Y139.331 E23.91769
G1 X93.388 Y138.803 E23.95104
G1 X93.043 Y138.229 E23.98445
G1 X92.77 Y137.618 E24.01784
G1 X92.572 Y136.979 E24.05121
G1 X92.451 Y136.321 E24.08459
G1 X92.411 Y135.792 E24.11106
G1 X92.4 Y135.308 E24.13521
G1 X92.401 Y74.947 E27.14663
G1 X92.41 Y74.283 E27.17976
G1 X92.459 Y73.616 E27.21313
G1 X92.587 Y72.959 E27.24652
G1 X92.792 Y72.323 E27.27986
G1 X93.072 Y71.715 E27.31326
G1 X93.423 Y71.145 E27.34665
G1 X93.839 Y70.621 E27.38003
M205 X10 Y10
G0 F6000 X93.819 Y71.279
M205 X8 Y8
G1 F1200 X94.232 Y70.785 E27.41216
G1 X94.704 Y70.345 E27.44435
G1 X95.226 Y69.967 E27.4765
G1 X95.791 Y69.656 E27.50868
G1 X96.39 Y69.418 E27.54084
G1 X97.013 Y69.255 E27.57297
G1 X97.863 Y69.161 E27.61563
G1 X98.33 Y69.15 E27.63894
G1 X106.362 Y69.15 E28.03965
G1 X106.931 Y69.161 E28.06805
G1 X107.772 Y69.203 E28.11006
G1 X108.381 Y69.27 E28.14062
G1 X109.076 Y69.398 E28.17588
G1 X109.263 Y69.442 E28.18546
G1 X109.781 Y69.593 E28.21238
G1 X110.37 Y69.798 E28.2435
G1 X111.062 Y70.096 E28.28109
G1 X111.733 Y70.457 E28.3191
G1 X112.012 Y70.625 E28.33535
G1 X112.475 Y70.939 E28.36326
G1 X113.059 Y71.394 E28.40019
G1 X113.501 Y71.799 E28.4301
G1 X113.915 Y72.225 E28.45974
G1 X114.315 Y72.697 E28.49061
G1 X114.668 Y73.172 E28.52013
G1 X114.998 Y73.683 E28.55048
G1 X115.396 Y74.426 E28.59253
G1 X115.762 Y75.279 E28.63884
G1 X115.966 Y75.887 E28.67083
G1 X116.076 Y76.337 E28.69395
G1 X116.21 Y77.011 E28.72823
G1 X116.294 Y77.618 E28.7588
G1 X116.321 Y78.071 E28.78144
G1 X116.35 Y79.539 E28.85469
G1 X116.35 Y130.866 E31.41541
G1 X116.34 Y131.571 E31.45059
G1 X116.313 Y132.148 E31.4794
G1 X116.232 Y132.882 E31.51625
G1 X116.108 Y133.55 E31.55014
G1 X116.059 Y133.759 E31.56085
G1 X115.908 Y134.279 E31.58787
G1 X115.704 Y134.866 E31.61887
G1 X115.407 Y135.555 E31.6563
G1 X115.038 Y136.241 E31.69516
G1 X114.87 Y136.519 E31.71137
G1 X114.564 Y136.971 E31.7386
G1 X114.093 Y137.575 E31.77681
G1 X113.741 Y137.96 E31.80284
G1 X113.288 Y138.402 E31.83441
G1 X112.795 Y138.82 E31.86666
G1 X112.329 Y139.168 E31.89568
G1 X111.811 Y139.502 E31.92643
G1 X111.074 Y139.896 E31.96812
G1 X110.226 Y140.26 E32.01416
G1 X109.577 Y140.476 E32.04829
G1 X109.16 Y140.577 E32.06969
G1 X108.484 Y140.711 E32.10407
G1 X107.885 Y140.794 E32.13424
G1 X107.429 Y140.821 E32.15703
G1 X105.961 Y140.85 E32.23029
G1 X98.633 Y140.849 E32.59588
G1 X97.935 Y140.839 E32.63071
G1 X97.292 Y140.79 E32.66288
G1 X96.66 Y140.662 E32.69505
G1 X96.049 Y140.456 E32.72722
G1 X95.468 Y140.177 E32.75938
G1 X94.926 Y139.828 E32.79154
G1 X94.432 Y139.414 E32.82369
G1 X93.992 Y138.942 E32.85589
G1 X93.614 Y138.42 E32.88804
G1 X93.304 Y137.855 E32.92019
G1 X93.066 Y137.256 E32.95235
G1 X92.904 Y136.632 E32.98451
G1 X92.811 Y135.781 E33.02722
G1 X92.8 Y135.308 E33.05083
G1 X92.8 Y74.953 E36.06195
G1 X92.809 Y74.289 E36.09508
G1 X92.858 Y73.646 E36.12725
G1 X92.986 Y73.014 E36.15942
G1 X93.191 Y72.403 E36.19158
G1 X93.47 Y71.822 E36.22373
G1 X93.819 Y71.279 E36.25593
M205 X10 Y10
G1 F1500 E30.25593
G1 F600 Z0.375
;MESH:head v4.3mf
G0 F6000 X106.958 Y134.65 Z0.375
M205 X8 Y8
;TYPE:WALL-INNER
G1 F600 Z0.3
G1 F1500 E36.25593
G1 F1200 X99 Y134.65 E36.65296
G1 X99 Y75.35 E39.61145
G1 X106.958 Y75.35 E40.00848
G1 X107.863 Y75.472 E40.05403
G1 X108.27 Y75.621 E40.07566
G1 X109.027 Y76.096 E40.12024
G1 X109.636 Y76.78 E40.16593
G1 X110.007 Y77.575 E40.2097
G1 X110.114 Y78.04 E40.23351
G1 X110.15 Y78.542 E40.25862
G1 X110.151 Y131.472 E42.89931
G1 X110.026 Y132.365 E42.94429
G1 X109.678 Y133.152 E42.98722
G1 X109.118 Y133.825 E43.0309
G1 X108.72 Y134.136 E43.0561
G1 X107.925 Y134.507 E43.09987
G1 X107.462 Y134.614 E43.12358
G1 X106.958 Y134.65 E43.14879
M205 X10 Y10
G0 F6000 X106.972 Y135.05
M205 X8 Y8
G1 F1200 X98.6 Y135.05 E43.56647
G1 X98.6 Y74.95 E46.56487
G1 X106.972 Y74.95 E46.98255
G1 X107.502 Y74.987 E47.00906
G1 X107.977 Y75.088 E47.03328
G1 X108.448 Y75.26 E47.0583
G1 X109.275 Y75.779 E47.10701
G1 X109.623 Y76.115 E47.13115
G1 X109.978 Y76.569 E47.1599
G1 X110.388 Y77.447 E47.20824
G1 X110.507 Y77.961 E47.23456
G1 X110.512 Y77.992 E47.23613
G1 X110.55 Y78.528 E47.26294
G1 X110.551 Y131.486 E49.90502
G1 X110.515 Y131.992 E49.93033
G1 X110.411 Y132.478 E49.95513
G1 X110.24 Y132.948 E49.98008
G1 X110.017 Y133.366 E50.00372
G1 X109.717 Y133.78 E50.02922
G1 X109.385 Y134.123 E50.05304
G1 X108.931 Y134.478 E50.08179
G1 X108.053 Y134.888 E50.13014
G1 X107.54 Y135.007 E50.15641
G1 X107.508 Y135.012 E50.15803
G1 X106.972 Y135.05 E50.18483
M205 X10 Y10
G0 F6000 X106.986 Y135.45
M205 X8 Y8
;TYPE:WALL-OUTER
G1 F1200 X98.2 Y135.45 E50.62317
G1 X98.2 Y74.55 E53.66148
G1 X106.986 Y74.55 E54.09982
G1 X107.556 Y74.59 E54.12832
G1 X108.091 Y74.704 E54.15562
G1 X108.61 Y74.893 E54.18317
G1 X109.086 Y75.147 E54.21009
G1 X109.534 Y75.473 E54.23773
G1 X109.924 Y75.851 E54.26483
G1 X110.312 Y76.346 E54.29621
G1 X110.574 Y76.817 E54.32309
G1 X110.772 Y77.332 E54.35062
G1 X110.897 Y77.871 E54.37823
G1 X110.91 Y77.947 E54.38207
G1 X110.95 Y78.514 E54.41043
G1 X110.951 Y131.5 E57.05391
G1 X110.912 Y132.048 E57.08132
G1 X110.796 Y132.591 E57.10902
G1 X110.607 Y133.11 E57.13658
G1 X110.356 Y133.581 E57.16321
G1 X110.027 Y134.034 E57.19114
G1 X109.649 Y134.424 E57.21824
G1 X109.154 Y134.812 E57.24961
G1 X108.68 Y135.075 E57.27666
G1 X108.168 Y135.272 E57.30403
G1 X107.629 Y135.397 E57.33163
G1 X107.553 Y135.41 E57.33548
G1 X106.986 Y135.45 E57.36384
M205 X10 Y10
G0 F6000 X106.786 Y135.45
G0 X106.786 Y135.01
G0 X106.944 Y134.26
M205 X8 Y8
;TYPE:SKIN
G1 F1200 X99.39 Y134.26 E57.74071
G1 X99.39 Y75.74 E60.66028
G1 X106.936 Y75.74 E61.03675
G1 X107.768 Y75.852 E61.07864
G1 X108.099 Y75.973 E61.09622
G1 X108.773 Y76.396 E61.13592
G1 X109.307 Y76.996 E61.17599
G1 X109.637 Y77.702 E61.21487
G1 X109.76 Y78.556 E61.25792
G1 X109.761 Y131.446 E63.89661
G1 X109.648 Y132.255 E63.93736
G1 X109.342 Y132.946 E63.97507
G1 X108.847 Y133.541 E64.01368
G1 X108.512 Y133.803 E64.0349
G1 X107.798 Y134.137 E64.07422
G1 X106.944 Y134.26 E64.11727
M205 X10 Y10
G1 F1500 E58.11727
G1 F600 Z0.375
G0 F6000 X100.137 Y134.078 Z0.375
M205 X8 Y8
G1 F600 Z0.3
G1 F1500 E64.11727
G1 F1200 X99.569 Y133.51 E64.15735
M205 X10 Y10
G0 F6000 X99.569 Y132.945
M205 X8 Y8
G1 F1200 X100.703 Y134.078 E64.23732
M205 X10 Y10
G0 F6000 X101.269 Y134.078
M205 X8 Y8
G1 F1200 X99.569 Y132.379 E64.35723
M205 X10 Y10
G0 F6000 X99.569 Y131.813
M205 X8 Y8
G1 F1200 X101.834 Y134.078 E64.51704
M205 X10 Y10
G0 F6000 X102.4 Y134.078
M205 X8 Y8
G1 F1200 X99.569 Y131.248 E64.71674
M205 X10 Y10
G0 F6000 X99.569 Y130.682
M205 X8 Y8
G1 F1200 X102.966 Y134.078 E64.95639
M205 X10 Y10
G0 F6000 X103.531 Y134.078
M205 X8 Y8
G1 F1200 X99.569 Y130.116 E65.23593
M205 X10 Y10
G0 F6000 X99.569 Y129.551
M205 X8 Y8
G1 F1200 X104.097 Y134.078 E65.55537
M205 X10 Y10
G0 F6000 X104.663 Y134.078
M205 X8 Y8
G1 F1200 X99.569 Y128.985 E65.91474
M205 X10 Y10
G0 F6000 X99.569 Y128.419
M205 X8 Y8
G1 F1200 X105.228 Y134.078 E66.31401
M205 X10 Y10
G0 F6000 X105.794 Y134.078
M205 X8 Y8
G1 F1200 X99.569 Y127.854 E66.75318
M205 X10 Y10
