;FLAVOR:Marlin
;TIME:3901
;Filament used: 3.07602m
;Layer height: 0.2
;MINX:55.6
;MINY:70.779
;MINZ:0.3
;MAXX:154.4
;MAXY:135.068
;MAXZ:3.175
;Generated with Cura_SteamEngine 4.12.1
M82 ;absolute extrusion mode
G21                                        ; metric values 
G90                                        ; absolute positioning 
M82                                        ; set extruder to absolute mode 
M107                                       ; start with the fan off 
M140 S60           ; Start heating the bed 
G4 S60                                     ; wait 1 minute 
M104 S210         ; start heating the hot end 
M190 S60           ; wait for bed 
M109 S210         ; wait for hotend 
M300 S1000 P500                            ; BEEP heating done 
G28 X0 Y10 Z0                              ; move X/Y to min endstops 
M420 S1                                    ; Enable leveling 
M420 Z2.0                                  ; Set leveling fading height to 2 mm 
G0 Z0.15                                   ; lift nozzle a bit 
G92 E0                                     ; zero the extruded length 
G1 X50 E25 F500                            ; Extrude 25mm of filament in a 5cm line. 
G92 E0                                     ; zero the extruded length again 
G1 E-2 F500                                ; Retract a little 
G1 X120 F4000                              ; Quickly wipe away from the filament line`
G92 E0
G92 E0
G1 F1500 E-6
;LAYER_COUNT:15
;LAYER:0
M106 S76.5
M205 X10 Y10
G1 F600 Z0.375
G0 F6000 X58.071 Y72.143 Z0.375
M205 X8 Y8
;TYPE:SKIRT
G1 F600 Z0.3
G1 F1500 E0
G1 F1200 X58.659 Y71.735 E0.03571
G1 X59.288 Y71.395 E0.07138
G1 X59.952 Y71.128 E0.10708
G1 X60.641 Y70.936 E0.14277
G1 X61.347 Y70.822 E0.17845
G1 X62.151 Y70.782 E0.21861
G1 X62.33 Y70.779 E0.22754
G1 X147.293 Y70.779 E4.46636
G1 X148.083 Y70.79 E4.50578
G1 X148.796 Y70.84 E4.54144
G1 X149.5 Y70.969 E4.57714
G1 X150.184 Y71.177 E4.61281
G1 X150.841 Y71.459 E4.64848
G1 X151.463 Y71.813 E4.68419
G1 X152.041 Y72.234 E4.71986
G1 X152.569 Y72.717 E4.75556
G1 X153.039 Y73.255 E4.7912
G1 X153.447 Y73.843 E4.82691
G1 X153.786 Y74.473 E4.8626
G1 X154.053 Y75.136 E4.89826
G1 X154.244 Y75.826 E4.93398
G1 X154.357 Y76.532 E4.96965
G1 X154.397 Y77.329 E5.00946
G1 X154.4 Y77.509 E5.01844
G1 X154.399 Y88.58 E5.57078
G1 X154.378 Y90.059 E5.64457
G1 X154.378 Y92.82 E5.78232
G1 X154.399 Y93.842 E5.83332
G1 X154.399 Y105.063 E6.39314
G1 X154.389 Y105.784 E6.42911
G1 X154.34 Y106.497 E6.46477
G1 X154.21 Y107.201 E6.50048
G1 X154.003 Y107.885 E6.53614
G1 X153.721 Y108.543 E6.57185
G1 X153.368 Y109.165 E6.60753
G1 X152.947 Y109.743 E6.64321
G1 X152.465 Y110.271 E6.67887
G1 X151.655 Y110.942 E6.73135
G1 X149.489 Y112.455 E6.86317
G1 X147.365 Y114.028 E6.99503
G1 X145.288 Y115.659 E7.12678
G1 X143.261 Y117.346 E7.25835
G1 X141.255 Y119.113 E7.39172
G1 X139.34 Y120.898 E7.52233
G1 X137.446 Y122.768 E7.65512
G1 X135.604 Y124.692 E7.788
G1 X133.847 Y126.635 E7.9187
G1 X132.12 Y128.657 E8.05136
G1 X130.457 Y130.718 E8.18348
G1 X129.304 Y132.231 E8.27839
G1 X129.002 Y132.615 E8.30276
G1 X128.529 Y133.152 E8.33846
G1 X127.999 Y133.633 E8.37417
G1 X127.419 Y134.051 E8.40984
G1 X126.796 Y134.402 E8.44551
G1 X126.137 Y134.681 E8.48121
G1 X125.452 Y134.885 E8.51687
G1 X124.748 Y135.012 E8.55256
G1 X124.15 Y135.057 E8.58248
G1 X123.649 Y135.068 E8.60748
G1 X86.595 Y135.067 E10.45611
G1 X85.894 Y135.057 E10.49109
G1 X85.18 Y135.007 E10.5268
G1 X84.477 Y134.878 E10.56246
G1 X83.792 Y134.671 E10.59816
G1 X83.135 Y134.388 E10.63385
G1 X82.513 Y134.035 E10.66953
G1 X81.935 Y133.614 E10.7052
G1 X81.282 Y132.999 E10.74996
G1 X80.879 Y132.52 E10.78119
G1 X80.238 Y131.677 E10.83402
G1 X78.572 Y129.554 E10.96866
G1 X76.894 Y127.539 E11.09948
G1 X75.124 Y125.528 E11.23313
G1 X73.34 Y123.614 E11.36367
G1 X71.472 Y121.721 E11.49635
G1 X69.561 Y119.891 E11.62836
G1 X67.587 Y118.104 E11.7612
G1 X65.586 Y116.395 E11.89249
G1 X63.529 Y114.734 E12.02439
G1 X61.417 Y113.128 E12.15676
G1 X59.216 Y111.548 E12.29194
G1 X58.354 Y110.948 E12.34433
G1 X57.791 Y110.507 E12.38001
G1 X57.28 Y110.006 E12.41572
G1 X56.828 Y109.452 E12.45139
G1 X56.441 Y108.85 E12.48709
G1 X56.124 Y108.209 E12.52277
G1 X55.88 Y107.537 E12.55844
G1 X55.713 Y106.841 E12.59414
G1 X55.611 Y105.872 E12.64276
G1 X55.6 Y105.37 E12.66781
G1 X55.601 Y94.269 E13.22164
G1 X55.622 Y92.82 E13.29394
G1 X55.622 Y90.042 E13.43253
G1 X55.601 Y89.037 E13.48268
G1 X55.601 Y77.766 E14.04499
G1 X55.61 Y77.101 E14.07817
G1 X55.659 Y76.388 E14.11383
G1 X55.788 Y75.684 E14.14954
G1 X55.995 Y75 E14.18519
G1 X56.277 Y74.342 E14.22091
G1 X56.63 Y73.72 E14.25659
G1 X57.05 Y73.142 E14.29223
G1 X57.533 Y72.614 E14.32793
G1 X58.071 Y72.143 E14.36361
M205 X10 Y10
G0 F6000 X58.458 Y72.352
M205 X8 Y8
G1 F1200 X59.039 Y71.975 E14.39816
G1 X59.659 Y71.667 E14.4327
G1 X60.311 Y71.433 E14.46726
G1 X60.985 Y71.276 E14.50179
G1 X61.841 Y71.19 E14.54471
G1 X62.33 Y71.179 E14.56911
G1 X147.293 Y71.179 E18.80793
G1 X148.077 Y71.19 E18.84705
G1 X148.768 Y71.239 E18.88161
G1 X149.448 Y71.369 E18.91615
G1 X150.109 Y71.575 E18.95069
G1 X150.742 Y71.857 E18.98526
G1 X151.338 Y72.209 E19.0198
G1 X151.889 Y72.628 E19.05433
G1 X152.389 Y73.108 E19.08891
G1 X152.83 Y73.642 E19.12346
G1 X153.207 Y74.223 E19.15802
G1 X153.514 Y74.844 E19.19258
G1 X153.747 Y75.496 E19.22712
G1 X153.904 Y76.17 E19.26165
G1 X153.989 Y77.02 E19.30426
G1 X154 Y77.509 E19.32867
G1 X153.999 Y88.574 E19.8807
G1 X153.978 Y90.059 E19.9548
G1 X153.978 Y92.801 E20.0916
G1 X153.998 Y93.711 E20.13701
G1 X154 Y104.973 E20.69887
G1 X153.989 Y105.778 E20.73904
G1 X153.94 Y106.469 E20.7736
G1 X153.811 Y107.149 E20.80813
G1 X153.605 Y107.81 E20.84267
G1 X153.324 Y108.443 E20.87722
G1 X152.971 Y109.04 E20.91182
G1 X152.553 Y109.591 E20.94633
G1 X152.073 Y110.091 E20.98091
G1 X151.426 Y110.614 E21.02241
G1 X149.268 Y112.122 E21.15376
G1 X147.126 Y113.708 E21.28673
G1 X145.031 Y115.353 E21.41962
G1 X143.004 Y117.04 E21.55119
G1 X140.982 Y118.821 E21.68562
G1 X139.052 Y120.62 E21.81725
G1 X137.158 Y122.489 E21.95
G1 X135.318 Y124.412 E22.08278
G1 X133.547 Y126.371 E22.21454
G1 X131.803 Y128.412 E22.34847
G1 X130.142 Y130.47 E22.48042
G1 X128.989 Y131.984 E22.57536
G1 X128.687 Y132.368 E22.59973
G1 X128.228 Y132.887 E22.6343
G1 X127.713 Y133.349 E22.66882
G1 X127.147 Y133.749 E22.70339
G1 X126.54 Y134.081 E22.73791
G1 X125.898 Y134.341 E22.77247
G1 X125.23 Y134.525 E22.80704
G1 X124.546 Y134.631 E22.84157
G1 X123.817 Y134.666 E22.87798
G1 X123.649 Y134.668 E22.88636
G1 X86.6 Y134.667 E24.73474
G1 X85.899 Y134.657 E24.76972
G1 X85.209 Y134.608 E24.80423
G1 X84.528 Y134.478 E24.83882
G1 X83.867 Y134.272 E24.87336
G1 X83.235 Y133.99 E24.90789
G1 X82.638 Y133.638 E24.94246
G1 X82.087 Y133.219 E24.977
G1 X81.575 Y132.727 E25.01243
G1 X81.198 Y132.278 E25.04168
G1 X80.559 Y131.438 E25.09433
G1 X78.895 Y129.318 E25.22879
G1 X77.201 Y127.282 E25.36093
G1 X75.433 Y125.274 E25.4944
G1 X73.6 Y123.307 E25.62854
G1 X71.751 Y121.433 E25.75988
G1 X69.823 Y119.588 E25.89302
G1 X67.869 Y117.82 E26.02449
G1 X65.831 Y116.078 E26.15824
G1 X63.76 Y114.406 E26.29104
G1 X61.671 Y112.818 E26.42195
G1 X59.458 Y111.228 E26.5579
G1 X58.582 Y110.619 E26.61113
G1 X58.038 Y110.192 E26.64563
G1 X57.546 Y109.704 E26.6802
G1 X57.114 Y109.163 E26.71474
G1 X56.746 Y108.576 E26.74931
G1 X56.449 Y107.95 E26.78387
G1 X56.226 Y107.295 E26.81839
G1 X56.081 Y106.618 E26.85294
G1 X56.011 Y105.861 E26.89086
G1 X56 Y105.37 E26.91537
G1 X56.001 Y94.274 E27.46895
G1 X56.022 Y92.82 E27.5415
G1 X56.022 Y90.059 E27.67924
G1 X56.002 Y89.168 E27.72371
G1 X56 Y77.854 E28.28816
G1 X56.01 Y77.107 E28.32544
G1 X56.059 Y76.416 E28.36
G1 X56.187 Y75.736 E28.39452
G1 X56.394 Y75.074 E28.42912
G1 X56.675 Y74.441 E28.46367
G1 X57.027 Y73.845 E28.49821
G1 X57.445 Y73.293 E28.53275
G1 X57.924 Y72.793 E28.5673
G1 X58.458 Y72.352 E28.60185
M205 X10 Y10
G0 F6000 X58.314 Y72.98
M205 X8 Y8
G1 F1200 X58.843 Y72.569 E28.63527
G1 X59.416 Y72.224 E28.66864
G1 X60.027 Y71.951 E28.70203
G1 X60.665 Y71.752 E28.73537
G1 X61.323 Y71.63 E28.76876
G1 X61.852 Y71.59 E28.79522
G1 X62.33 Y71.579 E28.81908
G1 X147.293 Y71.579 E33.0579
G1 X148.071 Y71.59 E33.09672
G1 X148.738 Y71.639 E33.13008
G1 X149.395 Y71.768 E33.16349
G1 X150.031 Y71.974 E33.19684
G1 X150.639 Y72.255 E33.23026
G1 X151.208 Y72.605 E33.26358
G1 X151.732 Y73.022 E33.29699
G1 X152.202 Y73.498 E33.33037
G1 X152.612 Y74.026 E33.36372
G1 X152.957 Y74.6 E33.39713
G1 X153.23 Y75.211 E33.43052
G1 X153.428 Y75.85 E33.46389
G1 X153.549 Y76.508 E33.49727
G1 X153.589 Y77.032 E33.52349
G1 X153.6 Y77.509 E33.54729
G1 X153.599 Y88.569 E34.09908
G1 X153.578 Y90.059 E34.17342
G1 X153.578 Y92.81 E34.31067
G1 X153.598 Y93.72 E34.35608
G1 X153.6 Y104.973 E34.9175
G1 X153.589 Y105.773 E34.95741
G1 X153.54 Y106.44 E34.99078
G1 X153.412 Y107.096 E35.02412
G1 X153.206 Y107.733 E35.05752
G1 X152.926 Y108.341 E35.09092
G1 X152.575 Y108.91 E35.12427
G1 X152.159 Y109.434 E35.15765
G1 X151.683 Y109.905 E35.19106
G1 X151.197 Y110.286 E35.22187
G1 X149.023 Y111.805 E35.35418
G1 X146.886 Y113.387 E35.48684
G1 X144.773 Y115.046 E35.62086
G1 X142.749 Y116.731 E35.75225
G1 X140.727 Y118.512 E35.88668
G1 X138.763 Y120.343 E36.02064
G1 X136.889 Y122.193 E36.15202
G1 X135.033 Y124.132 E36.28593
G1 X133.23 Y126.126 E36.42005
G1 X131.503 Y128.147 E36.55268
G1 X129.828 Y130.223 E36.68576
G1 X128.675 Y131.737 E36.7807
G1 X128.373 Y132.121 E36.80508
G1 X127.929 Y132.621 E36.83844
G1 X127.428 Y133.065 E36.87183
G1 X126.878 Y133.446 E36.90521
G1 X126.286 Y133.758 E36.9386
G1 X125.662 Y133.998 E36.97195
G1 X125.013 Y134.161 E37.00534
G1 X124.127 Y134.257 E37.0498
G1 X123.649 Y134.268 E37.07365
G1 X86.606 Y134.267 E38.92174
G1 X85.905 Y134.257 E38.95671
G1 X85.238 Y134.208 E38.99008
G1 X84.581 Y134.079 E39.02348
G1 X83.945 Y133.873 E39.05684
G1 X83.338 Y133.593 E39.09019
G1 X82.768 Y133.242 E39.12358
G1 X82.244 Y132.825 E39.15699
G1 X81.868 Y132.455 E39.18331
G1 X81.516 Y132.036 E39.21061
G1 X80.879 Y131.2 E39.26305
G1 X79.184 Y129.04 E39.40003
G1 X77.493 Y127.007 E39.53196
G1 X75.744 Y125.02 E39.66402
G1 X73.895 Y123.036 E39.79933
G1 X72.047 Y121.164 E39.93056
G1 X70.104 Y119.303 E40.06479
G1 X68.114 Y117.503 E40.19866
G1 X66.096 Y115.778 E40.33111
G1 X64.008 Y114.093 E40.46497
G1 X61.901 Y112.49 E40.59705
G1 X59.681 Y110.896 E40.7334
G1 X58.811 Y110.291 E40.78627
G1 X58.285 Y109.877 E40.81966
G1 X57.813 Y109.403 E40.85304
G1 X57.401 Y108.876 E40.88641
G1 X57.054 Y108.304 E40.91979
G1 X56.778 Y107.694 E40.95319
G1 X56.577 Y107.056 E40.98656
G1 X56.454 Y106.399 E41.01991
G1 X56.411 Y105.849 E41.04743
G1 X56.4 Y105.37 E41.07134
G1 X56.401 Y94.28 E41.62462
G1 X56.422 Y92.82 E41.69747
G1 X56.422 Y90.059 E41.83521
G1 X56.402 Y89.159 E41.88013
G1 X56.4 Y77.854 E42.44413
G1 X56.41 Y77.112 E42.48116
G1 X56.459 Y76.445 E42.51452
G1 X56.587 Y75.788 E42.54792
G1 X56.792 Y75.152 E42.58125
G1 X57.072 Y74.544 E42.61465
G1 X57.423 Y73.974 E42.64805
G1 X57.839 Y73.45 E42.68143
G1 X58.314 Y72.98 E42.71476
M205 X10 Y10
G0 F6000 X58.703 Y73.174
M205 X8 Y8
G1 F1200 X59.226 Y72.796 E42.74696
G1 X59.79 Y72.485 E42.77909
G1 X60.389 Y72.247 E42.81125
G1 X61.013 Y72.084 E42.84342
G1 X61.863 Y71.99 E42.88609
G1 X62.33 Y71.979 E42.90939
G1 X147.293 Y71.979 E47.14821
G1 X148.065 Y71.99 E47.18673
G1 X148.708 Y72.039 E47.21891
G1 X149.34 Y72.167 E47.25108
G1 X149.951 Y72.373 E47.28325
G1 X150.532 Y72.652 E47.3154
G1 X151.074 Y73.001 E47.34756
G1 X151.568 Y73.415 E47.37972
G1 X152.008 Y73.887 E47.41191
G1 X152.386 Y74.409 E47.44407
G1 X152.696 Y74.974 E47.47622
G1 X152.934 Y75.573 E47.50837
G1 X153.096 Y76.197 E47.54054
G1 X153.189 Y77.043 E47.583
G1 X153.2 Y77.509 E47.60625
G1 X153.199 Y88.563 E48.15774
G1 X153.178 Y90.059 E48.23238
G1 X153.178 Y92.819 E48.37008
G1 X153.199 Y93.843 E48.42118
G1 X153.199 Y105.046 E48.9801
G1 X153.189 Y105.767 E49.01607
G1 X153.141 Y106.41 E49.04824
G1 X153.013 Y107.042 E49.08041
G1 X152.807 Y107.653 E49.11258
G1 X152.528 Y108.234 E49.14474
G1 X152.179 Y108.776 E49.1769
G1 X151.766 Y109.271 E49.20906
G1 X151.294 Y109.71 E49.24122
G1 X150.968 Y109.958 E49.26165
G1 X148.802 Y111.471 E49.39347
G1 X146.624 Y113.084 E49.52869
G1 X144.537 Y114.723 E49.66108
G1 X142.472 Y116.442 E49.79512
G1 X140.456 Y118.217 E49.92913
G1 X138.51 Y120.031 E50.06186
G1 X136.584 Y121.933 E50.1969
G1 X134.746 Y123.852 E50.32947
G1 X132.93 Y125.861 E50.46458
G1 X131.204 Y127.881 E50.59714
G1 X129.501 Y129.991 E50.73242
G1 X128.36 Y131.49 E50.8264
G1 X128.058 Y131.874 E50.85077
G1 X127.629 Y132.355 E50.88293
G1 X127.144 Y132.779 E50.91507
G1 X126.61 Y133.14 E50.94723
G1 X126.035 Y133.432 E50.9794
G1 X125.428 Y133.651 E51.01159
G1 X124.8 Y133.793 E51.04372
G1 X124.116 Y133.857 E51.07799
G1 X123.649 Y133.868 E51.1013
G1 X86.612 Y133.867 E52.94908
G1 X85.911 Y133.857 E52.98406
G1 X85.268 Y133.808 E53.01623
G1 X84.636 Y133.68 E53.0484
G1 X84.025 Y133.475 E53.08055
G1 X83.444 Y133.195 E53.11273
G1 X82.902 Y132.846 E53.14489
G1 X82.408 Y132.432 E53.17705
G1 X82.161 Y132.182 E53.19458
G1 X81.834 Y131.793 E53.21993
G1 X81.193 Y130.951 E53.27273
G1 X79.508 Y128.803 E53.40893
G1 X77.799 Y126.75 E53.5422
G1 X76.02 Y124.729 E53.67653
G1 X74.207 Y122.783 E53.80922
G1 X72.307 Y120.859 E53.94412
G1 X70.366 Y119 E54.07821
G1 X68.397 Y117.218 E54.2107
G1 X66.362 Y115.479 E54.34425
G1 X64.255 Y113.779 E54.47931
G1 X62.13 Y112.162 E54.61253
G1 X59.946 Y110.594 E54.74667
G1 X59.039 Y109.963 E54.80179
G1 X58.534 Y109.562 E54.83396
G1 X58.082 Y109.103 E54.8661
G1 X57.69 Y108.591 E54.89827
G1 X57.365 Y108.034 E54.93045
G1 X57.111 Y107.441 E54.96263
G1 X56.933 Y106.822 E54.99476
G1 X56.832 Y106.185 E55.02694
G1 X56.802 Y105.514 E55.06045
G1 X56.8 Y105.37 E55.06764
G1 X56.801 Y94.286 E55.62062
G1 X56.822 Y92.82 E55.69377
G1 X56.822 Y90.059 E55.83151
G1 X56.801 Y89.036 E55.88256
G1 X56.8 Y77.783 E56.44398
G1 X56.809 Y77.118 E56.47716
G1 X56.858 Y76.475 E56.50933
G1 X56.986 Y75.843 E56.5415
G1 X57.191 Y75.232 E56.57365
G1 X57.47 Y74.651 E56.60581
G1 X57.819 Y74.108 E56.63801
G1 X58.232 Y73.614 E56.67013
G1 X58.703 Y73.174 E56.70229
M205 X10 Y10
G1 F1500 E50.70229
G1 F600 Z0.375
;MESH:window1-right v2.3mf
G0 F6000 X147 Y88.179 Z0.375
M205 X8 Y8
;TYPE:WALL-INNER
G1 F600 Z0.3
G1 F1500 E56.70229
G1 F1200 X63 Y88.179 E60.89307
G1 X63 Y78.179 E61.39197
G1 X147 Y78.179 E65.58275
G1 X147 Y88.179 E66.08165
M205 X10 Y10
G0 F6000 X147.4 Y88.579
M205 X8 Y8
G1 F1200 X62.6 Y88.579 E70.31234
G1 X62.6 Y77.779 E70.85115
G1 X147.4 Y77.779 E75.08184
G1 X147.4 Y88.579 E75.62066
M205 X10 Y10
G0 F6000 X147.8 Y88.979
M205 X8 Y8
;TYPE:WALL-OUTER
G1 F1200 X62.2 Y88.979 E79.89126
G1 X62.2 Y77.379 E80.46998
G1 X147.8 Y77.379 E84.74059
G1 X147.8 Y88.979 E85.31931
M205 X10 Y10
G0 F6000 X147.6 Y88.979
G0 X147.36 Y88.539
G0 X146.61 Y87.789
M205 X8 Y8
;TYPE:SKIN
G1 F1200 X63.39 Y87.789 E89.47117
G1 X63.39 Y78.569 E89.93116
G1 X146.61 Y78.569 E94.08302
G1 X146.61 Y87.789 E94.54301
M205 X10 Y10
G1 F1500 E88.54301
G1 F600 Z0.375
G0 F6000 X146.429 Y79.112 Z0.375
M205 X8 Y8
G1 F600 Z0.3
G1 F1500 E94.54301
G1 F1200 X146.065 Y78.749 E94.56866
M205 X10 Y10
G0 F6000 X145.499 Y78.749
M205 X8 Y8
G1 F1200 X146.429 Y79.678 E94.63424
M205 X10 Y10
G0 F6000 X146.429 Y80.243
M205 X8 Y8
G1 F1200 X144.934 Y78.749 E94.73969
M205 X10 Y10
G0 F6000 X144.368 Y78.749
M205 X8 Y8
G1 F1200 X146.429 Y80.809 E94.88506
M205 X10 Y10
G0 F6000 X146.429 Y81.375
M205 X8 Y8
G1 F1200 X143.802 Y78.749 E95.07038
M205 X10 Y10
G0 F6000 X143.237 Y78.749
M205 X8 Y8
G1 F1200 X146.429 Y81.94 E95.29556
M205 X10 Y10
G0 F6000 X146.429 Y82.506
M205 X8 Y8
G1 F1200 X142.671 Y78.749 E95.56067
M205 X10 Y10
G0 F6000 X142.105 Y78.749
M205 X8 Y8
G1 F1200 X146.429 Y83.072 E95.86571
M205 X10 Y10
G0 F6000 X146.429 Y83.638
M205 X8 Y8
G1 F1200 X141.54 Y78.749 E96.21066
M205 X10 Y10
G0 F6000 X140.974 Y78.749
M205 X8 Y8
G1 F1200 X146.429 Y84.203 E96.5955
M205 X10 Y10
G0 F6000 X146.429 Y84.769
M205 X8 Y8
G1 F1200 X140.408 Y78.749 E97.02028
M205 X10 Y10
G0 F6000 X139.843 Y78.749
M205 X8 Y8
G1 F1200 X146.429 Y85.335 E97.48496
M205 X10 Y10
G0 F6000 X146.429 Y85.9
M205 X8 Y8
